X: 2158
T: Şehnâz Seyir
C: Şefik Gürmeriç
O: Turkey
F: http://compmusic.upf.edu/node/140
N: sehnaz--seyir--sofyan--1--sefik_gurmeric
N: makam= sehnaz
N: form= seyir
N: usul= sofyan = 4/4
M: 4/4
L: 1/16
K: C _7/8B ^1/4f ^c ^g
Q: 1/4=60
%%MIDI tuningsystem comma53
a8 g2a2 =b=c'ba  | a8 z2ef ga=b=c'  | \
w:   |   | 
d'4 =c'2=b2 b3a c'bag  | 
w:   | 
a6e2 f2g2 a4  | z4 =b2=c'2 e'4 e'4  | \
w:   |   | 
d'2=c'2 =b2a2 g8  | z2a4=c'2 =b2a2 a2g2  | 
w:   |   | 
g3f gffe e8  | d4 a4 a4 ^3/4f2a2  | =g3^3/4f e4 g2f2 e2d2  | \
w:   |   |   | 
e2f6 fagf edc2  | 
w:   | 
z2d4f2 e2d2 d2c2  | c3B cBBA A8  | |


